X: 27627
T: Moon Over The Castle, The
R: barndance
M: 4/4
K: Eminor
V:1
"Em"B2 B2 e2 "d"f2|"Em"g2 "D"f2 "Em"e4|"Am"c2 c2 B2 A2|"Em"B4 z4|
V:2
E4 GA A2|B2 A2 G3A|A2 AG E2 ED|E4 GF G2|
V:1
"Em"B2 B2 e2 "D"f2|"Em"g2 "D"f2 "Em"e4|"Am"c2 A2 "B7"B3B|"Em"E4 z4|
V:2
EFGF G2 A2|B2 A2 G2 E2|A2 E2 G3F|G3e dc B2|
V:1
"Em"G2 G2 F2 E2|"C"c2 c2 "Em"B4|"Am"A2 B2 c3c|"Em"B4 z4|
V:2
eB B2 B3A|E3D E3F|E3e dc B2|G2 G2 G2 Bc|
V:1
"Em"B2 B2 e2 "D"f2|"Em"g2 "D"f2 "Em"e4|"Am"c2 A2 "B7"B3B|"Em"E4 z4||
V:2
G2 G2 G2 Bc|B2 A2 G3A|A2 E2 F3F|G3e Bc B2||

